X: 1808
T: Sultânîyegâh Seyir
C: Şefik Gürmeriç
O: Turkey
F: http://compmusic.upf.edu/node/140
N: sultaniyegah--seyir--sofyan--1--sefik_gurmeric
N: makam= sultaniyegah
N: form= seyir
N: usul= sofyan = 4/4
M: 4/4
L: 1/16
K: C _B ^c  
Q: 1/4=60
%%MIDI tuningsystem comma53
A4 d4 c2d2 efed  | d3f e3d c4 B4  | A4 A2B2 c2d2 e2f2  | 
w:   |   |   | 
e2de d2c2 d8  | z2d4e2 f8  | e2g2 f2e2 edcd e4  | \
w:   |   |   | 
z4 e2f2 g2b2 a2g2  | 
w:   | 
g2f2 f2e2 eddc d4  | z4 d2f2 e4 d4  | \
w:   |   | 
=c2de d2c2 B4 A4  | 
w:   | 
z4 A2B2 =c2d2 e4  | d2=c2 B2A2 B2A2 G4  | \
w:   |   | 
z4 E2F2 G2B2 A2G2  | G2F2 F2E2 D4 E2F2  | 
w:   |   | 
E3D C2D2 C2D2 EFED  | D12 z4  | |


